src/images/frame-browser.svg

<svg enable-background="new 0 0 190.2 176.3" height="176.3" viewBox="0 0 190.2 176.3" width="190.2" xmlns="http://www.w3.org/2000/svg"><path d="m177.2 0h-164.2c-7.2 0-13 5.8-13 13v149.8c0 7.2 5.8 13 13 13h164.2c7.2 0 13-5.8 13-13v-149.8c0-7.2-5.8-13-13-13zm-174.2 13c0-.7.1-1.4.2-2 .3-1.3.8-2.5 1.5-3.6.4-.5.8-1 1.2-1.5.7-.7 1.5-1.3 2.3-1.7 1.5-.8 3.1-1.2 4.8-1.2h164.2c1.7 0 3.3.4 4.8 1.2.9.5 1.6 1 2.3 1.7.5.5.9.9 1.2 1.5.7 1.1 1.2 2.3 1.5 3.6.1.7.2 1.3.2 2v24.6h-184.2zm184.2 149.8c0 .7-.1 1.4-.2 2-.3 1.3-.8 2.5-1.5 3.6-.4.5-.8 1-1.2 1.5-.7.7-1.5 1.3-2.3 1.7-1.4.8-3 1.2-4.8 1.2h-164.2c-1.7 0-3.3-.4-4.8-1.2-.9-.5-1.6-1-2.3-1.7-.5-.5-.9-.9-1.2-1.5-.7-1.1-1.2-2.3-1.5-3.6-.1-.7-.2-1.3-.2-2v-124.2h184.2z"/><path d="m187.2 13c0-.7-.1-1.4-.2-2-.3-1.3-.8-2.5-1.5-3.6-.4-.5-.8-1-1.2-1.5-.7-.7-1.5-1.3-2.3-1.7-1.4-.8-3-1.2-4.8-1.2h-164.2c-1.7 0-3.3.4-4.8 1.2-.9.5-1.6 1-2.3 1.7-.4.5-.8 1-1.2 1.5-.7 1.1-1.2 2.3-1.5 3.6-.1.6-.2 1.3-.2 2v24.6h184.2zm-165.1 14.4c-3.5 0-6.4-2.9-6.4-6.4s2.9-6.4 6.4-6.4 6.4 2.9 6.4 6.4-2.8 6.4-6.4 6.4zm17.7 0c-3.5 0-6.4-2.9-6.4-6.4s2.9-6.4 6.4-6.4 6.4 2.9 6.4 6.4-2.9 6.4-6.4 6.4zm17.6 0c-3.5 0-6.4-2.9-6.4-6.4s2.9-6.4 6.4-6.4 6.4 2.9 6.4 6.4-2.9 6.4-6.4 6.4z" fill="#fff"/><path d="m22.1 13.5c-4.1 0-7.4 3.3-7.4 7.4s3.3 7.4 7.4 7.4 7.4-3.3 7.4-7.4c0-4-3.3-7.4-7.4-7.4zm0 13.9c-3.5 0-6.4-2.9-6.4-6.4s2.9-6.4 6.4-6.4 6.4 2.9 6.4 6.4-2.8 6.4-6.4 6.4z"/><path d="m39.8 13.5c-4.1 0-7.4 3.3-7.4 7.4s3.3 7.4 7.4 7.4 7.4-3.3 7.4-7.4c0-4-3.4-7.4-7.4-7.4zm0 13.9c-3.5 0-6.4-2.9-6.4-6.4s2.9-6.4 6.4-6.4 6.4 2.9 6.4 6.4-2.9 6.4-6.4 6.4z"/><path d="m57.4 13.5c-4.1 0-7.4 3.3-7.4 7.4s3.3 7.4 7.4 7.4 7.4-3.3 7.4-7.4c0-4-3.3-7.4-7.4-7.4zm0 13.9c-3.5 0-6.4-2.9-6.4-6.4s2.9-6.4 6.4-6.4 6.4 2.9 6.4 6.4-2.9 6.4-6.4 6.4z"/><g fill="#00f"><ellipse cx="22.1" cy="21" rx="6.4" ry="6.4" transform="matrix(.9871 -.1602 .1602 .9871 -3.0703 3.8145)"/><ellipse cx="39.8" cy="21" rx="6.4" ry="6.4" transform="matrix(.9871 -.1602 .1602 .9871 -2.8426 6.6386)"/><ellipse cx="57.4" cy="21" rx="6.4" ry="6.4" transform="matrix(.9871 -.1602 .1602 .9871 -2.615 9.4627)"/></g></svg>

<?xml version="1.0" encoding="utf-8"?>
<svg version="1.1" id="Layer_1" xmlns="http://www.w3.org/2000/svg" xmlns:xlink="http://www.w3.org/1999/xlink" x="0px" y="0px"
	 width="190.2px" height="176.3px" viewBox="0 0 190.2 176.3" style="enable-background:new 0 0 190.2 176.3;" xml:space="preserve"
	>
<style type="text/css">
	path{fill:#000;}
	.title-bar{fill:#fff;}
	.button{fill:#00f;}
</style>
<g>
	<path d="M177.2,0H13C5.8,0,0,5.8,0,13v149.8c0,7.2,5.8,13,13,13h164.2c7.2,0,13-5.8,13-13V13C190.2,5.8,184.4,0,177.2,0z M3,13
		L3,13c0-0.7,0.1-1.4,0.2-2C3.5,9.7,4,8.5,4.7,7.4c0.4-0.5,0.8-1,1.2-1.5c0.7-0.7,1.5-1.3,2.3-1.7C9.7,3.4,11.3,3,13,3h164.2
		c1.7,0,3.3,0.4,4.8,1.2c0.9,0.5,1.6,1,2.3,1.7c0.5,0.5,0.9,0.9,1.2,1.5c0.7,1.1,1.2,2.3,1.5,3.6c0.1,0.7,0.2,1.3,0.2,2v0v24.6H3V13
		z M187.2,162.8L187.2,162.8c0,0.7-0.1,1.4-0.2,2c-0.3,1.3-0.8,2.5-1.5,3.6c-0.4,0.5-0.8,1-1.2,1.5c-0.7,0.7-1.5,1.3-2.3,1.7
		c-1.4,0.8-3,1.2-4.8,1.2H13c-1.7,0-3.3-0.4-4.8-1.2c-0.9-0.5-1.6-1-2.3-1.7c-0.5-0.5-0.9-0.9-1.2-1.5c-0.7-1.1-1.2-2.3-1.5-3.6
		c-0.1-0.7-0.2-1.3-0.2-2v0V38.6h184.2V162.8z"/>
	<path class="title-bar" d="M187.2,13c0-0.7-0.1-1.4-0.2-2c-0.3-1.3-0.8-2.5-1.5-3.6c-0.4-0.5-0.8-1-1.2-1.5c-0.7-0.7-1.5-1.3-2.3-1.7
		c-1.4-0.8-3-1.2-4.8-1.2H13c-1.7,0-3.3,0.4-4.8,1.2c-0.9,0.5-1.6,1-2.3,1.7C5.5,6.4,5.1,6.9,4.7,7.4C4,8.5,3.5,9.7,3.2,11
		C3.1,11.6,3,12.3,3,13v24.6h184.2V13z M22.1,27.4c-3.5,0-6.4-2.9-6.4-6.4s2.9-6.4,6.4-6.4c3.5,0,6.4,2.9,6.4,6.4
		S25.7,27.4,22.1,27.4z M39.8,27.4c-3.5,0-6.4-2.9-6.4-6.4s2.9-6.4,6.4-6.4s6.4,2.9,6.4,6.4S43.3,27.4,39.8,27.4z M57.4,27.4
		c-3.5,0-6.4-2.9-6.4-6.4s2.9-6.4,6.4-6.4s6.4,2.9,6.4,6.4S60.9,27.4,57.4,27.4z"/>
	<path d="M22.1,13.5c-4.1,0-7.4,3.3-7.4,7.4c0,4.1,3.3,7.4,7.4,7.4s7.4-3.3,7.4-7.4C29.5,16.9,26.2,13.5,22.1,13.5z M22.1,27.4
		c-3.5,0-6.4-2.9-6.4-6.4s2.9-6.4,6.4-6.4c3.5,0,6.4,2.9,6.4,6.4S25.7,27.4,22.1,27.4z"/>
	<path d="M39.8,13.5c-4.1,0-7.4,3.3-7.4,7.4c0,4.1,3.3,7.4,7.4,7.4s7.4-3.3,7.4-7.4C47.2,16.9,43.8,13.5,39.8,13.5z M39.8,27.4
		c-3.5,0-6.4-2.9-6.4-6.4s2.9-6.4,6.4-6.4s6.4,2.9,6.4,6.4S43.3,27.4,39.8,27.4z"/>
	<path d="M57.4,13.5c-4.1,0-7.4,3.3-7.4,7.4c0,4.1,3.3,7.4,7.4,7.4s7.4-3.3,7.4-7.4C64.8,16.9,61.5,13.5,57.4,13.5z M57.4,27.4
		c-3.5,0-6.4-2.9-6.4-6.4s2.9-6.4,6.4-6.4s6.4,2.9,6.4,6.4S60.9,27.4,57.4,27.4z"/>
	<g>
	<defs>
		<path id="browser-canvas" d="M3,162.8c0,0.7,0.1,1.4,0.2,2c0.3,1.3,0.8,2.5,1.5,3.6c0.4,0.5,0.8,1,1.2,1.5c0.7,0.7,1.5,1.3,2.3,1.7
			c1.4,0.8,3,1.2,4.8,1.2h164.2c1.7,0,3.3-0.4,4.8-1.2c0.9-0.5,1.6-1,2.3-1.7c0.5-0.5,0.9-0.9,1.2-1.5c0.7-1.1,1.2-2.3,1.5-3.6
			c0.1-0.7,0.2-1.3,0.2-2V38.6H3V162.8z"/>
	</defs>
	<ellipse transform="matrix(0.9871 -0.1602 0.1602 0.9871 -3.0703 3.8145)" class="button" cx="22.1" cy="21" rx="6.4" ry="6.4"/>
	<ellipse transform="matrix(0.9871 -0.1602 0.1602 0.9871 -2.8426 6.6386)" class="button" cx="39.8" cy="21" rx="6.4" ry="6.4"/>
	<ellipse transform="matrix(0.9871 -0.1602 0.1602 0.9871 -2.615 9.4627)" class="button" cx="57.4" cy="21" rx="6.4" ry="6.4"/>
</g>
</svg>
